X:12
T:Celtic Cousins Hornpipe
C:Dougie MacDonald and Jerry Holland
S:Bernie Waugh
R:Reel
M:4/4
L:1/8
K:F
|:\
"F"F2{G}FE FGAB|cF"Bb"dF "F"c2AG|"(occasional Dm)"F2{G}FE FAGF|"C"EC (3CCC ECEG|
"F"F2{G}FE FGAB|cF"Bb"dF "F"c2Ac|"Bb"Bdfb "F"Acfa|1\
"C"agfe "F"fdcA:|2\
"C"agfe "F"f2(3ed^c||
|:\
"Dm"dD (3DDD dcde|faga fdcd|"C"cE (3EEE ~c=Bcd|eg^fg "Am"ec=Bc|
"Dm"dD (3DDD dcde|faga fdcd|1\
"C"cE (3EEE cEGc|"Am"AFGE "Dm"D2 (3ed^c:|2\
"Bb"Bdfb "F"Acfa|"C"agfe "F"fdcA|]


